src/assets/icons/skills/webpack.svg

<svg xmlns="http://www.w3.org/2000/svg"  viewBox="0 0 64 64" width="50px" height="50px"><path d="M 31.964844 2.0019531 C 31.954332 2.0023108 31.94409 2.0051711 31.933594 2.0058594 C 31.90767 2.0075438 31.883314 2.0157925 31.857422 2.0195312 C 31.759252 2.0336532 31.665431 2.062263 31.574219 2.1054688 C 31.558481 2.1128875 31.540902 2.1108276 31.525391 2.1191406 L 5.5253906 16.119141 C 5.4421343 16.164249 5.3685422 16.220799 5.3027344 16.285156 C 5.2890357 16.29851 5.2804952 16.315961 5.2675781 16.330078 C 5.2022412 16.401725 5.1494867 16.481508 5.1074219 16.568359 C 5.093182 16.597601 5.0797471 16.625492 5.0683594 16.65625 C 5.028154 16.764707 5.0003257 16.876889 5 16.996094 C 5 16.996094 5 16.998047 5 16.998047 C 5 16.998047 5 17 5 17 L 5 47 C 5 47.08825 5.0129688 47.176656 5.0351562 47.259766 C 5.0651377 47.370919 5.1183474 47.472453 5.1835938 47.566406 C 5.1988514 47.588502 5.2153035 47.607981 5.2324219 47.628906 C 5.305296 47.717859 5.388207 47.798964 5.4902344 47.859375 C 5.4920275 47.860444 5.4942951 47.860271 5.4960938 47.861328 C 5.4977509 47.862297 5.4983353 47.864273 5.5 47.865234 L 31.488281 62.859375 C 31.489536 62.860116 31.490929 62.860592 31.492188 62.861328 C 31.493452 62.862074 31.494827 62.862542 31.496094 62.863281 L 31.5 62.865234 C 31.545206 62.891271 31.593525 62.905533 31.640625 62.923828 C 31.67391 62.93674 31.706018 62.955626 31.740234 62.964844 C 31.740234 62.964844 31.742188 62.964844 31.742188 62.964844 C 31.827389 62.987709 31.912164 63 31.998047 63 C 31.998047 63 32 63 32 63 C 32.084915 63 32.170963 62.988515 32.253906 62.966797 C 32.270869 62.96233 32.286025 62.952614 32.302734 62.947266 C 32.364945 62.927365 32.427718 62.905437 32.486328 62.873047 L 59.486328 47.873047 C 59.490529 47.870711 59.49194 47.865668 59.496094 47.863281 C 59.505383 47.857968 59.516234 47.857193 59.525391 47.851562 C 59.617266 47.794375 59.694124 47.719395 59.761719 47.638672 C 59.779226 47.617742 59.792963 47.596365 59.808594 47.574219 C 59.868101 47.49044 59.91581 47.400919 59.947266 47.302734 C 59.951353 47.289931 59.957366 47.27858 59.960938 47.265625 C 59.984643 47.17999 60 47.091271 60 47 L 60 17 C 60 16.993054 59.996234 16.987381 59.996094 16.980469 C 59.993415 16.870108 59.968124 16.764795 59.931641 16.664062 C 59.918807 16.62857 59.905277 16.595987 59.888672 16.5625 C 59.848238 16.480377 59.797629 16.406162 59.736328 16.337891 C 59.721241 16.321115 59.711489 16.300875 59.695312 16.285156 C 59.626231 16.217957 59.549139 16.158967 59.460938 16.113281 L 32.460938 2.1132812 C 32.419678 2.0918528 32.375167 2.0816842 32.332031 2.0664062 C 32.307486 2.0576595 32.284915 2.0478309 32.259766 2.0410156 C 32.163251 2.0149531 32.063737 1.9985884 31.964844 2.0019531 z M 33 4.6445312 L 56.796875 16.982422 L 47.015625 21.875 L 33 14.400391 L 33 4.6445312 z M 31 4.6757812 L 31 14.400391 L 17.005859 21.863281 L 8.0996094 17.005859 L 31 4.6757812 z M 32 16.134766 L 44.875 23 L 32 29.865234 L 19.125 23 L 32 16.134766 z M 58 18.619141 L 58 45.382812 L 48 40.382812 L 48 23.617188 L 58 18.619141 z M 7 18.685547 L 16 23.59375 L 16 26 C 16 26.553 16.448 27 17 27 C 17.552 27 18 26.553 18 26 L 18 24.667969 L 31 31.599609 L 31 47.332031 L 18 40.400391 L 18 38 C 18 37.447 17.552 37 17 37 C 16.448 37 16 37.447 16 38 L 16 40.40625 L 7 45.314453 L 7 18.685547 z M 46 24.667969 L 46 41 C 46 41.049957 46.020285 41.09265 46.027344 41.140625 C 46.037847 41.212597 46.044668 41.28372 46.070312 41.351562 C 46.093196 41.411885 46.130499 41.461552 46.164062 41.515625 C 46.197786 41.570634 46.227126 41.625777 46.271484 41.673828 C 46.319893 41.726163 46.37897 41.763661 46.4375 41.804688 C 46.477896 41.833088 46.507229 41.871778 46.552734 41.894531 L 56.857422 47.046875 L 33 60.300781 L 33 49 L 33 31.599609 L 46 24.667969 z M 17 29 C 16.448 29 16 29.447 16 30 L 16 34 C 16 34.553 16.448 35 17 35 C 17.552 35 18 34.553 18 34 L 18 30 C 18 29.447 17.552 29 17 29 z M 43.107422 40.898438 C 42.977922 40.910109 42.849063 40.948422 42.726562 41.013672 C 42.239562 41.273672 42.053453 41.878234 42.314453 42.365234 L 43.255859 44.130859 C 43.435859 44.467859 43.781672 44.660156 44.138672 44.660156 C 44.296672 44.660156 44.458375 44.622969 44.609375 44.542969 C 45.096375 44.282969 45.280531 43.676453 45.019531 43.189453 L 44.078125 41.423828 C 43.883125 41.059328 43.495922 40.863422 43.107422 40.898438 z M 17.003906 42.136719 L 31 49.599609 L 31 60.269531 L 8.0410156 47.023438 L 17.003906 42.136719 z M 38.939453 43.121094 C 38.809984 43.132578 38.680844 43.169625 38.558594 43.234375 C 38.071594 43.494375 37.886484 44.100891 38.146484 44.587891 L 39.087891 46.353516 C 39.268891 46.690516 39.615656 46.882812 39.972656 46.882812 C 40.130656 46.882812 40.290406 46.844625 40.441406 46.765625 C 40.928406 46.505625 41.113516 45.899109 40.853516 45.412109 L 39.912109 43.646484 C 39.716359 43.281984 39.327859 43.086641 38.939453 43.121094 z M 34.773438 45.341797 C 34.643859 45.353469 34.515078 45.391781 34.392578 45.457031 C 33.904578 45.717031 33.720469 46.323547 33.980469 46.810547 L 34.921875 48.574219 C 35.101875 48.911219 35.447688 49.103516 35.804688 49.103516 C 35.962688 49.103516 36.124391 49.066328 36.275391 48.986328 C 36.762391 48.726328 36.946547 48.119813 36.685547 47.632812 L 35.744141 45.867188 C 35.549891 45.502687 35.162172 45.306781 34.773438 45.341797 z"/></svg>

<svg xmlns="http://www.w3.org/2000/svg" width="50" height="50" viewBox="0 0 64 64"><path d="M31.965 2.002c-.01 0-.02.003-.031.004-.026.002-.05.01-.077.014a.984.984 0 0 0-.283.085c-.016.008-.033.006-.049.014l-26 14a.999.999 0 0 0-.222.166c-.014.014-.023.031-.035.045a.994.994 0 0 0-.2.326.98.98 0 0 0-.068.34V47c0 .088.013.177.035.26.03.11.083.212.149.306.015.023.031.042.048.063.073.089.156.17.258.23l.006.002.004.004L31.488 62.86l.004.002.004.002.004.002c.045.026.094.04.14.059.034.013.066.032.1.04h.002c.085.024.17.036.256.036H32c.085 0 .171-.011.254-.033.017-.005.032-.014.049-.02.062-.02.125-.042.183-.074l27-15c.005-.002.006-.007.01-.01.01-.005.02-.006.03-.011.091-.058.168-.133.236-.213.017-.021.031-.043.047-.065a.988.988 0 0 0 .138-.271l.014-.037A.994.994 0 0 0 60 47V17c0-.007-.004-.013-.004-.02a.998.998 0 0 0-.107-.418.985.985 0 0 0-.153-.224c-.015-.017-.025-.037-.04-.053a.988.988 0 0 0-.235-.172l-27-14c-.041-.021-.086-.031-.129-.047-.025-.008-.047-.018-.072-.025a1.006 1.006 0 0 0-.295-.039zM33 4.645l23.797 12.337-9.781 4.893L33 14.4V4.645zm-2 .03V14.4l-13.994 7.463L8.1 17.006 31 4.676zm1 11.46L44.875 23 32 29.865 19.125 23 32 16.135zm26 2.484v26.764l-10-5V23.617l10-4.998zm-51 .067 9 4.908V26a1 1 0 1 0 2 0v-1.332L31 31.6v15.732L18 40.4V38a1 1 0 1 0-2 0v2.406l-9 4.908V18.686zm39 5.982V41c0 .05.02.093.027.14.01.073.018.144.043.212.023.06.06.11.094.164.034.055.063.11.107.158.049.052.108.09.166.13.04.03.07.068.116.09l10.304 5.153L33 60.3V31.6l13-6.932zM17 29a1 1 0 0 0-1 1v4a1 1 0 1 0 2 0v-4a1 1 0 0 0-1-1zm26.107 11.898a.998.998 0 0 0-.793 1.467l.942 1.766a1 1 0 1 0 1.764-.942l-.942-1.765a.999.999 0 0 0-.97-.526zm-26.103 1.239L31 49.6v10.67L8.041 47.023l8.963-4.886zm21.935.984a1 1 0 0 0-.793 1.467l.942 1.766a1.004 1.004 0 0 0 1.353.412c.487-.26.673-.867.413-1.354l-.942-1.766a1.003 1.003 0 0 0-.973-.525zm-4.166 2.22a1 1 0 0 0-.793 1.469l.942 1.764a1 1 0 1 0 1.764-.941l-.942-1.766a.998.998 0 0 0-.97-.525z"/></svg>
